X:1
T:Called to Foreign Fields
T:Called to Foreign Fields
T:John Bunyan Goins & Robert E. Winsett
T:John Bunyan Goins, 1908
T:Public Domain Courtesy of the Cyber Hymnal™
T:Public Domain Courtesy of the Cyber Hymnal™
C:John Bunyan Goins & Robert E. Winsett
Z:Public Domain
Z:Courtesy of the Cyber Hymnal™
%%score ( 1 2 ) ( 3 4 )
L:1/8
Q:1/4=92
M:4/4
K:G
V:1 treble 
V:2 treble 
V:3 bass 
V:4 bass 
V:1
 [DG][DA] | [GB][GB][GB][GB] [Gc][GB][DA][DG] | [EA][CE][CE][CE] [CE]2 [CF][B,G] | %3
w: 1.~In the|for- eign hea- then coun- try, Where the|peo- ple know not God, I am|
w: 2.~I am|called to bear a mes- sage To the|hea- then far a- way, And for|
w: 3.~Ma- ny|days I’ll climb the hill- sides, In the|sun- shine and the rain, Ma- ny|
w: 4.~I will|stand the trial and hard- ships Just to|tell them pre- cious truths, That the|
w: 5.~We’ll not|all be for- eign la- borers, But the|time will soon ar- rive, When our|
 [DA][DA][DA][DA] [DB][DA][DF]D | [DB]6 [DG][DA] | [GB][GB][GB][GB] [Gc][GB][DA][DG] | %6
w: go- ing there to preach His pre- cious|word, Where they|bow to wor- ship i- dols, I am|
w: years, o’er there a stran- ger, I may|roam, Just to|tell them of a Sav- ior, One who|
w: days I’ll be in hun- ger and in|thirst, Just to|tell them that our Lord is Com- ing|
w: Gos- pel of our Sav- ior doth con-|tain, And if|they will but o- bey them And be|
w: mis- sion we have faith- ful- ly ful-|filled, When our|mes- sage is de- liv- ered Aand ‘tis|
 [EA][CE][CE][CE] [CE]2 [CF][B,G] | [DA][DA][DA][DA] [DB][DA][DF]D | [B,G]6 ||"^Refrain" [DG][DA] | %10
w: go- ing there to stay, Where I’ll|la- bor in the vine- yard of the|Lord.||
w: died to save them all; That’s the|rea- son why I leave my na- tive|home.||
w: back to earth a- gain, With His|gifts and bless- ings all as at the|first.|O, I’ll|
w: faith- ful to the end, Up in|Hea- ven we will meet you all a-|gain.||
w: said of us, “Well done,” Then in|tri- umph we’ll de- part the bat- tle-|field.||
 [GB][GB][GB][GB] [Gc][GB][DA][DG] | [EA][CE] (3[CE][CE][CE] [CE]2 [CF][B,G] | %12
w: ||
w: ||
w: soon be with my loved ones in my|hap- py, hea- ven- ly home; Ev- en|
w: ||
w: ||
 [DA][DA][DA][DA] [DA][DA][GB][Fc] | [Gd]6 [DB][Dc] | [Gd][Gd][Gd][GB] [DG][DG][EA][EB] | %15
w: |||
w: |||
w: now the thought my soul with ra- pture|thrills; So, good-|bye, my friends and breth- ren, for my|
w: |||
w: |||
 [Ec][EB][CE][CE] !fermata![EA]2 [DF][EG] | [FA][FA][FA][FA] [GB][FA][DF]D | [DG]6 |] %18
w: |||
w: |||
w: time has come to go, I must|leave you on the dear, old bat- tle-|field.|
w: |||
w: |||
V:2
 x2 | x8 | x8 | x7 D | x8 | x8 | x8 | x7 D | x6 || x2 | x8 | x8 | x8 | x8 | x8 | x8 | x7 D | x6 |] %18
V:3
 [G,B,][G,B,] | [G,D][G,D][G,D][G,D] [G,E][G,D][G,C][G,B,] | %2
 [C,C][C,G,][C,G,][C,G,] [C,G,]2 D,[D,G,] | [D,F,][D,F,][D,F,][D,F,] [D,G,][D,F,][D,A,][D,F,] | %4
 [G,,G,]6 [G,B,][G,B,] | [G,D][G,D][G,D][G,D] [G,E][G,D][G,C][G,B,] | %6
 [C,C][C,G,][C,G,][C,G,] [C,G,]2 D,[D,G,] | [D,F,][D,F,][D,F,][D,F,] [D,G,][D,F,][D,A,][D,F,] | %8
 [G,,G,]6 || [G,B,][G,C] | [G,D][G,D][G,D][G,D] [G,E][G,D][G,C][G,B,] | %11
 [C,C][C,G,] (3[C,G,][C,G,][C,G,] [C,G,]2 D,[D,G,] | %12
 [D,F,][D,F,][D,F,][D,F,] [D,F,][C,F,][B,,G,][A,,A,] | [G,,B,]6 G,[G,A,] | %14
 [G,B,][G,B,][G,B,][G,D] [G,B,][G,B,][C,C][B,,^G,] | %15
 [A,,A,][B,,^G,][C,A,][C,C] !fermata![C,C]2 [D,C][D,C] | %16
 [D,C][D,C][D,C][D,C] [D,D][D,C][D,C][D,C] | [G,,B,]6 |] %18
V:4
 x2 | x8 | x6 D, x | x8 | x8 | x8 | x6 D, x | x8 | x6 || x2 | x8 | x6 D, x | x8 | x6 G, x | x8 | %15
 x8 | x8 | x6 |] %18

